X:513
T:The soldier's joy
R:Hornpipe
O:Ireland
B:O'Neill's 1642
B:Kerr's First
S:My arrangement from various sources
Z:Transcription, arrangement, chords:Mike Long
M:4/4
L:1/8
K:D
FG|\
"D"AFDF AFDF|A2d2 d2cB|AFDF AFDF|"A"G2E2 E2FG|\
"D"AFDF AFDF|A2d2 d2de|
"D"fafd "A"egec|"D"d2d2 d2:|\
|:de|\
"D"f2f2 fagf|"A"edcd efge|"D"f2f2 fagf|
"G"edcB "A"A2de|\
"D"fefg fagf|"A"ecAc efge|"D"fafd "A"egec|"D"d2d2 d2:|
